bernoullicharts/1_5_x__bits.svg

<?xml version="1.0" encoding="utf-8" standalone="no"?>
<!DOCTYPE svg PUBLIC "-//W3C//DTD SVG 1.1//EN"
  "http://www.w3.org/Graphics/SVG/1.1/DTD/svg11.dtd">
<!-- Created with matplotlib (https://matplotlib.org/) -->
<svg height="345.6pt" version="1.1" viewBox="0 0 460.8 345.6" width="460.8pt" xmlns="http://www.w3.org/2000/svg" xmlns:xlink="http://www.w3.org/1999/xlink">
 <defs>
  <style type="text/css">
*{stroke-linecap:butt;stroke-linejoin:round;}
  </style>
 </defs>
 <g id="figure_1">
  <g id="patch_1">
   <path d="M 0 345.6 
L 460.8 345.6 
L 460.8 0 
L 0 0 
z
" style="fill:#ffffff;"/>
  </g>
  <g id="axes_1">
   <g id="patch_2">
    <path d="M 57.6 307.584 
L 414.72 307.584 
L 414.72 41.472 
L 57.6 41.472 
z
" style="fill:#ffffff;"/>
   </g>
   <g id="matplotlib.axis_1">
    <g id="xtick_1">
     <g id="line2d_1">
      <defs>
       <path d="M 0 0 
L 0 3.5 
" id="m036c55188d" style="stroke:#000000;stroke-width:0.8;"/>
      </defs>
      <g>
       <use style="stroke:#000000;stroke-width:0.8;" x="73.800255" xlink:href="#m036c55188d" y="307.584"/>
      </g>
     </g>
     <g id="text_1">
      <text style="font-family:DejaVu Sans;font-size:10px;font-style:normal;font-weight:normal;text-anchor:middle;" transform="rotate(-0, 73.800255, 322.182437)" x="73.800255" y="322.182437">0.0</text>
     </g>
    </g>
    <g id="xtick_2">
     <g id="line2d_2">
      <g>
       <use style="stroke:#000000;stroke-width:0.8;" x="138.744153" xlink:href="#m036c55188d" y="307.584"/>
      </g>
     </g>
     <g id="text_2">
      <text style="font-family:DejaVu Sans;font-size:10px;font-style:normal;font-weight:normal;text-anchor:middle;" transform="rotate(-0, 138.744153, 322.182437)" x="138.744153" y="322.182437">0.2</text>
     </g>
    </g>
    <g id="xtick_3">
     <g id="line2d_3">
      <g>
       <use style="stroke:#000000;stroke-width:0.8;" x="203.688051" xlink:href="#m036c55188d" y="307.584"/>
      </g>
     </g>
     <g id="text_3">
      <text style="font-family:DejaVu Sans;font-size:10px;font-style:normal;font-weight:normal;text-anchor:middle;" transform="rotate(-0, 203.688051, 322.182437)" x="203.688051" y="322.182437">0.4</text>
     </g>
    </g>
    <g id="xtick_4">
     <g id="line2d_4">
      <g>
       <use style="stroke:#000000;stroke-width:0.8;" x="268.631949" xlink:href="#m036c55188d" y="307.584"/>
      </g>
     </g>
     <g id="text_4">
      <text style="font-family:DejaVu Sans;font-size:10px;font-style:normal;font-weight:normal;text-anchor:middle;" transform="rotate(-0, 268.631949, 322.182437)" x="268.631949" y="322.182437">0.6</text>
     </g>
    </g>
    <g id="xtick_5">
     <g id="line2d_5">
      <g>
       <use style="stroke:#000000;stroke-width:0.8;" x="333.575847" xlink:href="#m036c55188d" y="307.584"/>
      </g>
     </g>
     <g id="text_5">
      <text style="font-family:DejaVu Sans;font-size:10px;font-style:normal;font-weight:normal;text-anchor:middle;" transform="rotate(-0, 333.575847, 322.182437)" x="333.575847" y="322.182437">0.8</text>
     </g>
    </g>
    <g id="xtick_6">
     <g id="line2d_6">
      <g>
       <use style="stroke:#000000;stroke-width:0.8;" x="398.519745" xlink:href="#m036c55188d" y="307.584"/>
      </g>
     </g>
     <g id="text_6">
      <text style="font-family:DejaVu Sans;font-size:10px;font-style:normal;font-weight:normal;text-anchor:middle;" transform="rotate(-0, 398.519745, 322.182437)" x="398.519745" y="322.182437">1.0</text>
     </g>
    </g>
    <g id="text_7">
     <text style="font-family:DejaVu Sans;font-size:10px;font-style:normal;font-weight:normal;text-anchor:middle;" transform="rotate(-0, 236.16, 335.860562)" x="236.16" y="335.860562">Probability</text>
    </g>
   </g>
   <g id="matplotlib.axis_2">
    <g id="ytick_1">
     <g id="line2d_7">
      <defs>
       <path d="M 0 0 
L -3.5 0 
" id="md68e947ea9" style="stroke:#000000;stroke-width:0.8;"/>
      </defs>
      <g>
       <use style="stroke:#000000;stroke-width:0.8;" x="57.6" xlink:href="#md68e947ea9" y="270.200195"/>
      </g>
     </g>
     <g id="text_8">
      <text style="font-family:DejaVu Sans;font-size:10px;font-style:normal;font-weight:normal;text-anchor:end;" transform="rotate(-0, 50.6, 273.999414)" x="50.6" y="273.999414">4.0</text>
     </g>
    </g>
    <g id="ytick_2">
     <g id="line2d_8">
      <g>
       <use style="stroke:#000000;stroke-width:0.8;" x="57.6" xlink:href="#md68e947ea9" y="228.053854"/>
      </g>
     </g>
     <g id="text_9">
      <text style="font-family:DejaVu Sans;font-size:10px;font-style:normal;font-weight:normal;text-anchor:end;" transform="rotate(-0, 50.6, 231.853072)" x="50.6" y="231.853072">4.2</text>
     </g>
    </g>
    <g id="ytick_3">
     <g id="line2d_9">
      <g>
       <use style="stroke:#000000;stroke-width:0.8;" x="57.6" xlink:href="#md68e947ea9" y="185.907512"/>
      </g>
     </g>
     <g id="text_10">
      <text style="font-family:DejaVu Sans;font-size:10px;font-style:normal;font-weight:normal;text-anchor:end;" transform="rotate(-0, 50.6, 189.706731)" x="50.6" y="189.706731">4.4</text>
     </g>
    </g>
    <g id="ytick_4">
     <g id="line2d_10">
      <g>
       <use style="stroke:#000000;stroke-width:0.8;" x="57.6" xlink:href="#md68e947ea9" y="143.761171"/>
      </g>
     </g>
     <g id="text_11">
      <text style="font-family:DejaVu Sans;font-size:10px;font-style:normal;font-weight:normal;text-anchor:end;" transform="rotate(-0, 50.6, 147.560389)" x="50.6" y="147.560389">4.6</text>
     </g>
    </g>
    <g id="ytick_5">
     <g id="line2d_11">
      <g>
       <use style="stroke:#000000;stroke-width:0.8;" x="57.6" xlink:href="#md68e947ea9" y="101.614829"/>
      </g>
     </g>
     <g id="text_12">
      <text style="font-family:DejaVu Sans;font-size:10px;font-style:normal;font-weight:normal;text-anchor:end;" transform="rotate(-0, 50.6, 105.414048)" x="50.6" y="105.414048">4.8</text>
     </g>
    </g>
    <g id="ytick_6">
     <g id="line2d_12">
      <g>
       <use style="stroke:#000000;stroke-width:0.8;" x="57.6" xlink:href="#md68e947ea9" y="59.468488"/>
      </g>
     </g>
     <g id="text_13">
      <text style="font-family:DejaVu Sans;font-size:10px;font-style:normal;font-weight:normal;text-anchor:end;" transform="rotate(-0, 50.6, 63.267707)" x="50.6" y="63.267707">5.0</text>
     </g>
    </g>
    <g id="text_14">
     <text style="font-family:DejaVu Sans;font-size:10px;font-style:normal;font-weight:normal;text-anchor:middle;" transform="rotate(-90, 28.617187, 174.528)" x="28.617187" y="174.528">Average Bits Consumed Per Call</text>
    </g>
   </g>
   <g id="line2d_13">
    <path clip-path="url(#pc9e10741f2)" d="M 73.832727 115.523122 
L 77.112066 103.722146 
L 80.391405 121.42361 
L 83.670744 53.568 
L 86.950083 86.020683 
L 90.229421 121.42361 
L 93.50876 142.075317 
L 96.788099 145.025561 
L 100.067438 173.685073 
L 103.346777 100.771902 
L 106.626116 112.572878 
L 109.905455 104.986537 
L 113.184793 142.49678 
L 116.464132 118.051902 
L 119.743471 136.174829 
L 123.02281 128.167024 
L 126.302149 112.572878 
L 129.581488 121.845073 
L 132.860826 131.117268 
L 136.140165 128.588488 
L 139.419504 143.339707 
L 142.698843 121.002146 
L 145.978182 169.891902 
L 149.257521 173.685073 
L 152.53686 173.685073 
L 155.816198 151.768976 
L 159.095537 95.292878 
L 162.374876 155.140683 
L 165.654215 177.478244 
L 168.933554 189.27922 
L 172.212893 130.695805 
L 175.492231 157.669463 
L 178.77157 136.174829 
L 182.050909 158.51239 
L 185.330248 185.486049 
L 188.609587 206.55922 
L 191.888926 130.695805 
L 195.168264 169.048976 
L 198.447603 187.593366 
L 201.726942 217.517268 
L 205.006281 217.938732 
L 208.28562 152.611902 
L 211.564959 163.569951 
L 214.844298 183.378732 
L 218.123636 153.454829 
L 221.402975 174.528 
L 224.682314 149.661659 
L 227.961653 199.815805 
L 231.240992 179.585561 
L 234.520331 196.022634 
L 237.799669 155.98361 
L 241.079008 205.294829 
L 244.358347 223.417756 
L 247.637686 194.758244 
L 250.917025 180.007024 
L 254.196364 231.425561 
L 257.475702 238.168976 
L 260.755041 206.980683 
L 264.03438 244.490927 
L 267.313719 208.245073 
L 270.593058 236.483122 
L 273.872397 196.444098 
L 277.151736 233.111415 
L 280.431074 198.551415 
L 283.710413 193.493854 
L 286.989752 249.127024 
L 290.269091 208.245073 
L 293.54843 204.873366 
L 296.827769 226.789463 
L 300.107107 221.310439 
L 303.386446 239.011902 
L 306.665785 229.318244 
L 309.945124 200.658732 
L 313.224463 244.069463 
L 316.503802 249.548488 
L 319.78314 216.252878 
L 323.062479 239.433366 
L 326.341818 237.326049 
L 329.621157 265.142634 
L 332.900496 232.689951 
L 336.179835 224.260683 
L 339.459174 295.488 
L 342.738512 237.747512 
L 346.017851 218.781659 
L 349.29719 279.893854 
L 352.576529 251.234341 
L 355.855868 270.621659 
L 359.135207 275.67922 
L 362.414545 276.522146 
L 365.693884 277.786537 
L 368.973223 286.215805 
L 372.252562 269.357268 
L 375.531901 268.514341 
L 378.81124 233.111415 
L 382.090579 278.629463 
L 385.369917 280.73678 
L 388.649256 290.008976 
L 391.928595 250.391415 
L 395.207934 282.422634 
L 398.487273 255.027512 
" style="fill:none;stroke:#1f77b4;stroke-linecap:square;stroke-width:1.5;"/>
   </g>
   <g id="patch_3">
    <path d="M 57.6 307.584 
L 57.6 41.472 
" style="fill:none;stroke:#000000;stroke-linecap:square;stroke-linejoin:miter;stroke-width:0.8;"/>
   </g>
   <g id="patch_4">
    <path d="M 414.72 307.584 
L 414.72 41.472 
" style="fill:none;stroke:#000000;stroke-linecap:square;stroke-linejoin:miter;stroke-width:0.8;"/>
   </g>
   <g id="patch_5">
    <path d="M 57.6 307.584 
L 414.72 307.584 
" style="fill:none;stroke:#000000;stroke-linecap:square;stroke-linejoin:miter;stroke-width:0.8;"/>
   </g>
   <g id="patch_6">
    <path d="M 57.6 41.472 
L 414.72 41.472 
" style="fill:none;stroke:#000000;stroke-linecap:square;stroke-linejoin:miter;stroke-width:0.8;"/>
   </g>
   <g id="text_15">
    <text style="font-family:DejaVu Sans;font-size:12px;font-style:normal;font-weight:normal;text-anchor:middle;" transform="rotate(-0, 236.16, 35.472)" x="236.16" y="35.472">Avg. Bits Consumed by 1/(5+x) Algorithm</text>
   </g>
   <g id="legend_1">
    <g id="patch_7">
     <path d="M 337.524688 64.150125 
L 407.72 64.150125 
Q 409.72 64.150125 409.72 62.150125 
L 409.72 48.472 
Q 409.72 46.472 407.72 46.472 
L 337.524688 46.472 
Q 335.524688 46.472 335.524688 48.472 
L 335.524688 62.150125 
Q 335.524688 64.150125 337.524688 64.150125 
z
" style="fill:#ffffff;opacity:0.8;stroke:#cccccc;stroke-linejoin:miter;"/>
    </g>
    <g id="line2d_14">
     <path d="M 339.524688 54.570438 
L 359.524688 54.570438 
" style="fill:none;stroke:#1f77b4;stroke-linecap:square;stroke-width:1.5;"/>
    </g>
    <g id="line2d_15"/>
    <g id="text_16">
     <text style="font-family:DejaVu Sans;font-size:10px;font-style:normal;font-weight:normal;text-anchor:start;" transform="rotate(-0, 367.524688, 58.070438)" x="367.524688" y="58.070438">1/(5+x)</text>
    </g>
   </g>
  </g>
 </g>
 <defs>
  <clipPath id="pc9e10741f2">
   <rect height="266.112" width="357.12" x="57.6" y="41.472"/>
  </clipPath>
 </defs>
</svg>

<svg height="460.8" viewBox="0 0 460.8 345.6" width="614.4" xmlns="http://www.w3.org/2000/svg" xmlns:xlink="http://www.w3.org/1999/xlink"><defs><style>*{stroke-linecap:butt;stroke-linejoin:round}</style></defs><g id="figure_1"><path d="M0 345.6h460.8V0H0z" fill="#fff" id="patch_1"/><g id="axes_1"><path d="M57.6 307.584h357.12V41.472H57.6z" fill="#fff" id="patch_2"/><g id="matplotlib.axis_1"><g id="xtick_1"><g id="line2d_1"><defs><path d="M0 0v3.5" id="m036c55188d" stroke="#000" stroke-width=".8"/></defs><use x="73.8" xlink:href="#m036c55188d" y="307.584" stroke="#000" stroke-width=".8"/></g><text x="73.8" y="322.182" font-family="DejaVu Sans" font-size="10" font-weight="400" text-anchor="middle" id="text_1">0.0</text></g><g id="xtick_2"><use x="138.744" xlink:href="#m036c55188d" y="307.584" stroke="#000" stroke-width=".8" id="line2d_2"/><text x="138.744" y="322.182" font-family="DejaVu Sans" font-size="10" font-weight="400" text-anchor="middle" id="text_2">0.2</text></g><g id="xtick_3"><use x="203.688" xlink:href="#m036c55188d" y="307.584" stroke="#000" stroke-width=".8" id="line2d_3"/><text x="203.688" y="322.182" font-family="DejaVu Sans" font-size="10" font-weight="400" text-anchor="middle" id="text_3">0.4</text></g><g id="xtick_4"><use x="268.632" xlink:href="#m036c55188d" y="307.584" stroke="#000" stroke-width=".8" id="line2d_4"/><text x="268.632" y="322.182" font-family="DejaVu Sans" font-size="10" font-weight="400" text-anchor="middle" id="text_4">0.6</text></g><g id="xtick_5"><use x="333.576" xlink:href="#m036c55188d" y="307.584" stroke="#000" stroke-width=".8" id="line2d_5"/><text x="333.576" y="322.182" font-family="DejaVu Sans" font-size="10" font-weight="400" text-anchor="middle" id="text_5">0.8</text></g><g id="xtick_6"><use x="398.52" xlink:href="#m036c55188d" y="307.584" stroke="#000" stroke-width=".8" id="line2d_6"/><text x="398.52" y="322.182" font-family="DejaVu Sans" font-size="10" font-weight="400" text-anchor="middle" id="text_6">1.0</text></g><text x="236.16" y="335.861" font-family="DejaVu Sans" font-size="10" font-weight="400" text-anchor="middle" id="text_7">Probability</text></g><g id="matplotlib.axis_2"><g id="ytick_1"><g id="line2d_7"><defs><path d="M0 0h-3.5" id="md68e947ea9" stroke="#000" stroke-width=".8"/></defs><use x="57.6" xlink:href="#md68e947ea9" y="270.2" stroke="#000" stroke-width=".8"/></g><text x="50.6" y="273.999" font-family="DejaVu Sans" font-size="10" font-weight="400" text-anchor="end" id="text_8">4.0</text></g><g id="ytick_2"><use x="57.6" xlink:href="#md68e947ea9" y="228.054" stroke="#000" stroke-width=".8" id="line2d_8"/><text x="50.6" y="231.853" font-family="DejaVu Sans" font-size="10" font-weight="400" text-anchor="end" id="text_9">4.2</text></g><g id="ytick_3"><use x="57.6" xlink:href="#md68e947ea9" y="185.908" stroke="#000" stroke-width=".8" id="line2d_9"/><text x="50.6" y="189.707" font-family="DejaVu Sans" font-size="10" font-weight="400" text-anchor="end" id="text_10">4.4</text></g><g id="ytick_4"><use x="57.6" xlink:href="#md68e947ea9" y="143.761" stroke="#000" stroke-width=".8" id="line2d_10"/><text x="50.6" y="147.56" font-family="DejaVu Sans" font-size="10" font-weight="400" text-anchor="end" id="text_11">4.6</text></g><g id="ytick_5"><use x="57.6" xlink:href="#md68e947ea9" y="101.615" stroke="#000" stroke-width=".8" id="line2d_11"/><text x="50.6" y="105.414" font-family="DejaVu Sans" font-size="10" font-weight="400" text-anchor="end" id="text_12">4.8</text></g><g id="ytick_6"><use x="57.6" xlink:href="#md68e947ea9" y="59.468" stroke="#000" stroke-width=".8" id="line2d_12"/><text x="50.6" y="63.268" font-family="DejaVu Sans" font-size="10" font-weight="400" text-anchor="end" id="text_13">5.0</text></g><text transform="rotate(-90 28.617 174.528)" x="28.617" y="174.528" font-family="DejaVu Sans" font-size="10" font-weight="400" text-anchor="middle" id="text_14">Average Bits Consumed Per Call</text></g><path clip-path="url(#pc9e10741f2)" d="M73.833 115.523l3.28-11.8 3.278 17.7 3.28-67.855 3.28 32.453 3.278 35.403 3.28 20.651 3.28 2.95 3.278 28.66 3.28-72.913 3.28 11.8 3.278-7.585 3.28 37.51 3.28-24.445 3.278 18.123 3.28-8.008 3.28-15.594 3.278 9.272 3.28 9.272 3.28-2.529 3.279 14.752 3.279-22.338 3.28 48.89 3.279 3.793h3.279l3.28-21.916 3.279-56.476 3.279 59.848 3.28 22.337 3.279 11.801 3.279-58.583 3.28 26.973 3.279-21.494 3.279 22.337 3.28 26.974 3.279 21.073 3.279-75.863 3.28 38.353 3.279 18.544 3.279 29.924 3.28.422 3.279-65.327 3.279 10.958 3.28 19.809 3.279-29.924 3.279 21.073 3.28-24.866 3.279 50.154 3.279-20.23 3.28 16.437 3.279-40.04 3.279 49.312 3.28 18.123 3.279-28.66 3.279-14.751 3.28 51.419 3.279 6.743 3.279-31.188 3.28 37.51 3.279-36.246 3.28 28.238 3.278-40.039 3.28 36.667 3.28-34.56 3.278-5.057 3.28 55.633 3.28-40.882 3.278-3.372 3.28 21.916 3.28-5.479 3.278 17.702 3.28-9.694 3.28-28.66 3.278 43.411 3.28 5.48 3.28-33.296 3.278 23.18 3.28-2.107 3.28 27.817 3.278-32.453 3.28-8.43 3.28 71.228 3.279-57.74 3.279-18.966 3.28 61.112 3.279-28.66 3.279 19.388 3.28 5.057 3.279.843 3.279 1.265 3.28 8.429 3.279-16.859 3.279-.843 3.28-35.403 3.279 45.518 3.279 2.108 3.28 9.272 3.279-39.618 3.279 32.032 3.28-27.395" fill="none" stroke="#1f77b4" stroke-linecap="square" stroke-width="1.5" id="line2d_13"/><path d="M57.6 307.584V41.472" fill="none" stroke="#000" stroke-linecap="square" stroke-width=".8" id="patch_3"/><path d="M414.72 307.584V41.472" fill="none" stroke="#000" stroke-linecap="square" stroke-width=".8" id="patch_4"/><path d="M57.6 307.584h357.12" fill="none" stroke="#000" stroke-linecap="square" stroke-width=".8" id="patch_5"/><path d="M57.6 41.472h357.12" fill="none" stroke="#000" stroke-linecap="square" stroke-width=".8" id="patch_6"/><text x="236.16" y="35.472" font-family="DejaVu Sans" font-size="12" font-weight="400" text-anchor="middle" id="text_15">Avg. Bits Consumed by 1/(5+x) Algorithm</text><g id="legend_1"><path d="M337.525 64.15h70.195q2 0 2-2V48.472q0-2-2-2h-70.195q-2 0-2 2V62.15q0 2 2 2z" fill="#fff" opacity=".8" stroke="#ccc" id="patch_7"/><path d="M339.525 54.57h20" fill="none" stroke="#1f77b4" stroke-linecap="square" stroke-width="1.5" id="line2d_14"/><text x="367.525" y="58.07" font-family="DejaVu Sans" font-size="10" font-weight="400" id="text_16">1/(5+x)</text></g></g></g><defs><clipPath id="pc9e10741f2"><path d="M57.6 41.472h357.12v266.112H57.6z"/></clipPath></defs></svg>
